images/icons/in.svg

<svg width="30" height="30" viewBox="0 0 30 30" fill="none" xmlns="http://www.w3.org/2000/svg">
<g opacity="0.8">
<path d="M4.39453 30H25.6055C28.0286 30 30 28.0286 30 25.6055V4.39453C30 1.97136 28.0286 0 25.6055 0H4.39453C1.97136 0 0 1.97136 0 4.39453V25.6055C0 28.0286 1.97136 30 4.39453 30ZM1.75781 4.39453C1.75781 2.94067 2.94067 1.75781 4.39453 1.75781H25.6055C27.0593 1.75781 28.2422 2.94067 28.2422 4.39453V25.6055C28.2422 27.0593 27.0593 28.2422 25.6055 28.2422H4.39453C2.94067 28.2422 1.75781 27.0593 1.75781 25.6055V4.39453Z" fill="#2B3541"/>
<path d="M15 22.9102C19.3616 22.9102 22.9102 19.3616 22.9102 15C22.9102 10.6384 19.3616 7.08984 15 7.08984C10.6384 7.08984 7.08984 10.6384 7.08984 15C7.08984 19.3616 10.6384 22.9102 15 22.9102ZM15 8.84766C18.3925 8.84766 21.1523 11.6075 21.1523 15C21.1523 18.3925 18.3925 21.1523 15 21.1523C11.6075 21.1523 8.84766 18.3925 8.84766 15C8.84766 11.6075 11.6075 8.84766 15 8.84766Z" fill="#2B3541"/>
<path d="M23.7891 8.84766C25.2429 8.84766 26.4258 7.66479 26.4258 6.21094C26.4258 4.75708 25.2429 3.57422 23.7891 3.57422C22.3352 3.57422 21.1523 4.75708 21.1523 6.21094C21.1523 7.66479 22.3352 8.84766 23.7891 8.84766ZM23.7891 5.33203C24.2736 5.33203 24.668 5.72639 24.668 6.21094C24.668 6.69548 24.2736 7.08984 23.7891 7.08984C23.3045 7.08984 22.9102 6.69548 22.9102 6.21094C22.9102 5.72639 23.3045 5.33203 23.7891 5.33203Z" fill="#2B3541"/>
</g>
</svg>

<svg xmlns="http://www.w3.org/2000/svg" width="30" height="30" fill="none"><g fill="#2B3541" opacity=".8"><path d="M4.395 30h21.21A4.4 4.4 0 0 0 30 25.605V4.395A4.4 4.4 0 0 0 25.605 0H4.395A4.4 4.4 0 0 0 0 4.395v21.21A4.4 4.4 0 0 0 4.395 30ZM1.758 4.395a2.64 2.64 0 0 1 2.637-2.637h21.21a2.64 2.64 0 0 1 2.637 2.637v21.21a2.64 2.64 0 0 1-2.637 2.637H4.395a2.64 2.64 0 0 1-2.637-2.637V4.395Z"/><path d="M15 22.91c4.362 0 7.91-3.548 7.91-7.91S19.362 7.09 15 7.09 7.09 10.638 7.09 15s3.548 7.91 7.91 7.91Zm0-14.062A6.16 6.16 0 0 1 21.152 15 6.16 6.16 0 0 1 15 21.152 6.16 6.16 0 0 1 8.848 15 6.16 6.16 0 0 1 15 8.848ZM23.79 8.848a2.64 2.64 0 0 0 2.636-2.637 2.64 2.64 0 0 0-2.637-2.637 2.64 2.64 0 0 0-2.637 2.637 2.64 2.64 0 0 0 2.637 2.637Zm0-3.516a.88.88 0 0 1 0 1.758.88.88 0 0 1 0-1.758Z"/></g></svg>
